src/categories-icons-sprite/categories/svg-cat-garden-decor.svg

<svg width="34" height="34" viewBox="0 0 34 34" fill="none" xmlns="http://www.w3.org/2000/svg">
<path class="p-F30051" d="M16.6794 29.8164H9.79391C8.51299 29.8164 7.40795 29.0367 6.97839 27.8299C6.54908 26.6232 6.91328 25.3208 7.90626 24.5114L10.7376 22.2043L11.9962 23.7488L9.16461 26.0559C8.65904 26.4678 8.80015 27.0066 8.8554 27.162C8.91065 27.3174 9.14152 27.8242 9.79391 27.8242H16.6794V29.8164Z" fill="#4D98CB"/>
<path class="p-D20041" d="M11.3662 27.8242H16.6787V29.8164H11.3662V27.8242Z" fill="#4D98CB"/>
<path class="p-FF0059" d="M10.3701 22.9766H12.3623V34H10.3701V22.9766Z" fill="#5FBEFF"/>
<path class="p-F30051" d="M11.3662 22.9766H12.3623V34H11.3662V22.9766Z" fill="#4D98CB"/>
<path class="p-FF0059" d="M33.0811 7.90234H31.0889V6.97266C31.0889 6.42351 30.6419 5.97656 30.0928 5.97656H28.2998V3.98438H30.0928C31.7405 3.98438 33.0811 5.32495 33.0811 6.97266V7.90234Z" fill="#4D98CB"/>
<path class="p-FF3980" d="M5.72171 22.0469H0V21.0508C0 18.3046 2.23421 17.9082 4.98047 17.9082H6.64062L5.72171 22.0469Z" fill="#4D98CB"/>
<path class="p-FF0059" d="M18.8145 21.9805H17.0107V16.9228H20.6523C21.5677 16.9228 22.3125 15.2592 22.3125 14.3438V7.63672H26.4512V14.3438C26.4512 18.5546 23.0253 21.9805 18.8145 21.9805Z" fill="#4D98CB"/>
<path class="p-FF5CA8" d="M16.0146 23.9727H6.71777C5.07007 23.9727 3.72949 22.6321 3.72949 20.9844V18.3281C3.72949 14.1173 7.15538 10.6914 11.3662 10.6914C15.577 10.6914 19.0029 14.1173 19.0029 18.3281V20.9844C19.0029 22.6321 17.6624 23.9727 16.0146 23.9727Z" fill="#5FBEFF"/>
<path class="p-FF3980" d="M11.3662 10.6914V23.9727H16.0146C17.6624 23.9727 19.0029 22.6321 19.0029 20.9844V18.3281C19.0029 14.1173 15.577 10.6914 11.3662 10.6914Z" fill="#58ADE5"/>
<path class="p-FF7CB9" d="M11.3662 23.9727L5.87598 24.8916L6.7949 21.2392C6.7949 19.2253 9.35218 16.668 11.3662 16.668C13.3801 16.668 15.0185 18.3063 15.0185 20.3203C15.0185 22.3343 13.3801 23.9727 11.3662 23.9727Z" fill="#A1D1FD"/>
<path class="p-FF3980" d="M24.3154 9.96094C21.5692 9.96094 19.335 7.72673 19.335 4.98047C19.335 2.23421 21.5692 0 24.3154 0C27.0617 0 29.2959 2.23421 29.2959 4.98047C29.2959 7.72673 27.0617 9.96094 24.3154 9.96094Z" fill="#58ADE5"/>
<path class="p-FF5CA8" d="M15.0186 20.3203C15.0186 18.3063 13.3802 16.668 11.3662 16.668V23.9727C13.3802 23.9727 15.0186 22.3343 15.0186 20.3203Z" fill="#5FBEFF"/>
</svg>

<svg width="34" height="34" fill="none" xmlns="http://www.w3.org/2000/svg"><path class="p-F30051" d="M16.68 29.816H9.793c-1.281 0-2.386-.78-2.816-1.986a2.957 2.957 0 01.928-3.319l2.832-2.307 1.258 1.545-2.831 2.307c-.506.412-.365.95-.31 1.106.056.155.287.662.939.662h6.885v1.992z" fill="#4D98CB"/><path class="p-D20041" d="M11.366 27.824h5.313v1.992h-5.313v-1.992z" fill="#4D98CB"/><path class="p-FF0059" d="M10.37 22.977h1.992V34H10.37V22.977z" fill="#5FBEFF"/><path class="p-F30051" d="M11.366 22.977h.996V34h-.996V22.977z" fill="#4D98CB"/><path class="p-FF0059" d="M33.081 7.902H31.09v-.93a.997.997 0 00-.996-.995H28.3V3.984h1.793a2.992 2.992 0 012.988 2.989v.93z" fill="#4D98CB"/><path class="p-FF3980" d="M5.722 22.047H0v-.996c0-2.746 2.234-3.143 4.98-3.143h1.66l-.918 4.139z" fill="#4D98CB"/><path class="p-FF0059" d="M18.814 21.98h-1.803v-5.057h3.641c.916 0 1.66-1.664 1.66-2.58V7.638h4.14v6.707c0 4.21-3.427 7.636-7.638 7.636z" fill="#4D98CB"/><path class="p-FF5CA8" d="M16.015 23.973H6.718a2.992 2.992 0 01-2.989-2.989v-2.656c0-4.21 3.426-7.637 7.637-7.637 4.211 0 7.637 3.426 7.637 7.637v2.656a2.992 2.992 0 01-2.988 2.989z" fill="#5FBEFF"/><path class="p-FF3980" d="M11.366 10.691v13.282h4.649a2.992 2.992 0 002.988-2.989v-2.656c0-4.21-3.426-7.637-7.637-7.637z" fill="#58ADE5"/><path class="p-FF7CB9" d="M11.366 23.973l-5.49.919.919-3.653c0-2.014 2.557-4.571 4.571-4.571a3.656 3.656 0 013.652 3.652 3.656 3.656 0 01-3.652 3.653z" fill="#A1D1FD"/><path class="p-FF3980" d="M24.315 9.96a4.986 4.986 0 01-4.98-4.98A4.986 4.986 0 0124.315 0a4.986 4.986 0 014.98 4.98 4.986 4.986 0 01-4.98 4.98z" fill="#58ADE5"/><path class="p-FF5CA8" d="M15.019 20.32a3.656 3.656 0 00-3.653-3.652v7.305a3.656 3.656 0 003.653-3.653z" fill="#5FBEFF"/></svg>
